emblems/scalable/emblem-unlocked.svg

<svg viewBox="0 0 24 24" xmlns="http://www.w3.org/2000/svg"><path d="m11.999999 1c-6.0751312.000001-10.999999 4.924869-10.999999 11.000001.0000014 6.075131 4.9248678 10.999999 10.999999 10.999999 6.075133 0 11.000001-4.924868 11.000001-10.999999 0-6.075133-4.924868-11.000001-11.000001-11.000001z" fill="#4d4d4d"/><path d="m16.258065 9.5161285a1.4193549 1.4193549 0 0 1 1.419354 1.4193545v7.096775a1.4193549 1.4193549 0 0 1 -1.419354 1.419355h-8.5161296c-.787742 0-1.4193549-.63871-1.4193549-1.419355v-7.096775a1.4193549 1.4193549 0 0 1 1.4193549-1.4193545h6.3870966v-1.419355a2.1290324 2.1290324 0 0 0 -2.129032-2.129032 2.1290324 2.1290324 0 0 0 -2.1290322 2.129032h-1.4193549a3.5483873 3.5483873 0 0 1 3.5483871-3.548387 3.5483873 3.5483873 0 0 1 3.548387 3.548387v1.419355zm-4.258065 6.3870975a1.4193549 1.4193549 0 0 0 1.419355-1.419355 1.4193549 1.4193549 0 0 0 -1.419355-1.419355 1.4193549 1.4193549 0 0 0 -1.419355 1.419355 1.4193549 1.4193549 0 0 0 1.419355 1.419355z" fill="#fff"/></svg>

<?xml version="1.0" encoding="UTF-8" standalone="no"?>
<svg
   xmlns:dc="http://purl.org/dc/elements/1.1/"
   xmlns:cc="http://creativecommons.org/ns#"
   xmlns:rdf="http://www.w3.org/1999/02/22-rdf-syntax-ns#"
   xmlns:svg="http://www.w3.org/2000/svg"
   xmlns="http://www.w3.org/2000/svg"
   xmlns:sodipodi="http://sodipodi.sourceforge.net/DTD/sodipodi-0.dtd"
   xmlns:inkscape="http://www.inkscape.org/namespaces/inkscape"
   viewBox="0 0 24 24"
   id="svg2"
   version="1.1"
   inkscape:version="0.91 r13725"
   sodipodi:docname="emblem-unlocked.svg">
  <metadata
     id="metadata12">
    <rdf:RDF>
      <cc:Work
         rdf:about="">
        <dc:format>image/svg+xml</dc:format>
        <dc:type
           rdf:resource="http://purl.org/dc/dcmitype/StillImage" />
      </cc:Work>
    </rdf:RDF>
  </metadata>
  <defs
     id="defs10" />
  <sodipodi:namedview
     pagecolor="#ffffff"
     bordercolor="#666666"
     borderopacity="1"
     objecttolerance="10"
     gridtolerance="10"
     guidetolerance="10"
     inkscape:pageopacity="0"
     inkscape:pageshadow="2"
     inkscape:window-width="2560"
     inkscape:window-height="1381"
     id="namedview8"
     showgrid="false"
     inkscape:zoom="2.8284271"
     inkscape:cx="160.723"
     inkscape:cy="-35.954798"
     inkscape:window-x="0"
     inkscape:window-y="30"
     inkscape:window-maximized="1"
     inkscape:current-layer="svg2" />
  <path
     style="opacity:1;fill:#4d4d4d;fill-opacity:1;stroke:none"
     d="M 11.999999,1 C 5.9248678,1.000001 1,5.924869 1,12.000001 1.0000014,18.075132 5.9248678,23 11.999999,23 18.075132,23 23,18.075132 23,12.000001 23,5.924868 18.075132,1 11.999999,1 Z"
     id="path4"
     inkscape:connector-curvature="0" />
  <path
     d="m 16.258065,9.5161285 a 1.4193549,1.4193549 0 0 1 1.419354,1.4193545 l 0,7.096775 a 1.4193549,1.4193549 0 0 1 -1.419354,1.419355 l -8.5161296,0 c -0.787742,0 -1.4193549,-0.63871 -1.4193549,-1.419355 l 0,-7.096775 A 1.4193549,1.4193549 0 0 1 7.7419354,9.5161285 l 6.3870966,0 0,-1.419355 A 2.1290324,2.1290324 0 0 0 12,5.9677415 2.1290324,2.1290324 0 0 0 9.8709678,8.0967735 l -1.4193549,0 A 3.5483873,3.5483873 0 0 1 12,4.5483865 a 3.5483873,3.5483873 0 0 1 3.548387,3.548387 l 0,1.419355 0.709678,0 M 12,15.903226 A 1.4193549,1.4193549 0 0 0 13.419355,14.483871 1.4193549,1.4193549 0 0 0 12,13.064516 1.4193549,1.4193549 0 0 0 10.580645,14.483871 1.4193549,1.4193549 0 0 0 12,15.903226 Z"
     style="fill:#ffffff"
     id="path6"
     inkscape:connector-curvature="0" />
</svg>
